logos/pycontrol.svg

<?xml version="1.0" encoding="UTF-8"?>
<!DOCTYPE svg PUBLIC "-//W3C//DTD SVG 1.1//EN" "http://www.w3.org/Graphics/SVG/1.1/DTD/svg11.dtd">
<svg xmlns="http://www.w3.org/2000/svg" version="1.1" width="126px" height="134px" style="shape-rendering:geometricPrecision; text-rendering:geometricPrecision; image-rendering:optimizeQuality; fill-rule:evenodd; clip-rule:evenodd" xmlns:xlink="http://www.w3.org/1999/xlink">
<g><path style="opacity:0.881" fill="#020202" d="M 12.5,-0.5 C 45.8333,-0.5 79.1667,-0.5 112.5,-0.5C 118.577,1.04747 122.91,4.71413 125.5,10.5C 125.5,19.5 125.5,28.5 125.5,37.5C 123.408,41.4276 120.408,44.5943 116.5,47C 109.174,47.4997 101.841,47.6663 94.5,47.5C 94.5,53.1667 94.5,58.8333 94.5,64.5C 97.5184,64.3354 100.518,64.502 103.5,65C 99.7516,71.8324 95.7516,78.4991 91.5,85C 99.9094,85.0933 108.243,85.76 116.5,87C 120.994,88.8714 123.994,92.0381 125.5,96.5C 125.5,105.5 125.5,114.5 125.5,123.5C 123.167,127.833 119.833,131.167 115.5,133.5C 80.1667,133.5 44.8333,133.5 9.5,133.5C 3.99685,130.823 0.663514,126.49 -0.5,120.5C -0.5,113.5 -0.5,106.5 -0.5,99.5C 0.260244,93.8801 3.26024,89.7134 8.5,87C 16.0804,85.6039 23.747,85.1039 31.5,85.5C 31.5,80.1667 31.5,74.8333 31.5,69.5C 28.8333,69.5 26.1667,69.5 23.5,69.5C 26.3559,62.1233 30.0226,55.1233 34.5,48.5C 26.1866,47.6683 17.8532,47.1683 9.5,47C 3.88205,44.5679 0.548713,40.4012 -0.5,34.5C -0.5,27.5 -0.5,20.5 -0.5,13.5C 1.05627,6.27635 5.3896,1.60968 12.5,-0.5 Z M 37.5,48.5 C 53.3246,47.5036 69.3246,47.1703 85.5,47.5C 85.5,53.1667 85.5,58.8333 85.5,64.5C 82.7531,64.1866 80.0865,64.52 77.5,65.5C 80.9141,71.9969 84.5808,78.3303 88.5,84.5C 72.5139,85.4994 56.5139,85.8328 40.5,85.5C 40.5,80.1667 40.5,74.8333 40.5,69.5C 43.5719,69.8174 46.5719,69.4841 49.5,68.5C 45.4741,61.7699 41.4741,55.1032 37.5,48.5 Z"/></g>
<g><path style="opacity:1" fill="#4988ba" d="M 11.5,1.5 C 45.1683,1.33335 78.835,1.50002 112.5,2C 119.299,3.44319 122.966,7.60985 123.5,14.5C 82.8279,14.8332 42.1612,14.4999 1.5,13.5C 3.06662,7.94101 6.39995,3.94101 11.5,1.5 Z"/></g>
<g><path style="opacity:1" fill="#fcfcfc" d="M 67.5,16.5 C 67.5,26.1667 67.5,35.8333 67.5,45.5C 49.1667,45.5 30.8333,45.5 12.5,45.5C 6.83333,44.5 3.5,41.1667 2.5,35.5C 2.5,29.1667 2.5,22.8333 2.5,16.5C 24.1667,16.5 45.8333,16.5 67.5,16.5 Z"/></g>
<g><path style="opacity:1" fill="#e9e9e9" d="M 67.5,16.5 C 73.5,16.5 79.5,16.5 85.5,16.5C 85.5,26.1667 85.5,35.8333 85.5,45.5C 79.5,45.5 73.5,45.5 67.5,45.5C 67.5,35.8333 67.5,26.1667 67.5,16.5 Z"/></g>
<g><path style="opacity:1" fill="#c9c9c9" d="M 85.5,16.5 C 89.1667,16.5 92.8333,16.5 96.5,16.5C 96.5,26.1667 96.5,35.8333 96.5,45.5C 92.8333,45.5 89.1667,45.5 85.5,45.5C 85.5,35.8333 85.5,26.1667 85.5,16.5 Z"/></g>
<g><path style="opacity:1" fill="#afafaf" d="M 96.5,16.5 C 98.1667,16.5 99.8333,16.5 101.5,16.5C 101.5,26.1667 101.5,35.8333 101.5,45.5C 99.8333,45.5 98.1667,45.5 96.5,45.5C 96.5,35.8333 96.5,26.1667 96.5,16.5 Z"/></g>
<g><path style="opacity:1" fill="#929292" d="M 102.5,15.5 C 104.265,16.4614 106.265,16.7947 108.5,16.5C 108.5,26.1667 108.5,35.8333 108.5,45.5C 106.167,45.5 103.833,45.5 101.5,45.5C 101.5,35.8333 101.5,26.1667 101.5,16.5C 99.8333,16.5 98.1667,16.5 96.5,16.5C 92.8333,16.5 89.1667,16.5 85.5,16.5C 79.5,16.5 73.5,16.5 67.5,16.5C 45.8333,16.5 24.1667,16.5 2.5,16.5C 2.5,22.8333 2.5,29.1667 2.5,35.5C 1.50929,29.021 1.17596,22.3543 1.5,15.5C 35.1667,15.5 68.8333,15.5 102.5,15.5 Z"/></g>
<g><path style="opacity:1" fill="#6c6c6c" d="M 108.5,16.5 C 111.167,16.5 113.833,16.5 116.5,16.5C 116.5,25.8333 116.5,35.1667 116.5,44.5C 115.234,45.0899 113.901,45.5899 112.5,46C 78.9975,46.8308 45.6641,46.6642 12.5,45.5C 30.8333,45.5 49.1667,45.5 67.5,45.5C 73.5,45.5 79.5,45.5 85.5,45.5C 89.1667,45.5 92.8333,45.5 96.5,45.5C 98.1667,45.5 99.8333,45.5 101.5,45.5C 103.833,45.5 106.167,45.5 108.5,45.5C 108.5,35.8333 108.5,26.1667 108.5,16.5 Z"/></g>
<g><path style="opacity:1" fill="#424242" d="M 102.5,15.5 C 108.545,15.3032 114.545,15.6365 120.5,16.5C 120.666,24.84 120.5,33.1733 120,41.5C 118.961,42.7101 117.794,43.7101 116.5,44.5C 116.5,35.1667 116.5,25.8333 116.5,16.5C 113.833,16.5 111.167,16.5 108.5,16.5C 106.265,16.7947 104.265,16.4614 102.5,15.5 Z"/></g>
<g><path style="opacity:1" fill="#fdd33a" d="M 123.5,99.5 C 82.8195,100.161 42.4862,99.4943 2.5,97.5C 3.92128,92.9102 6.92128,89.7435 11.5,88C 45.8333,87.3333 80.1667,87.3333 114.5,88C 119.944,89.9416 122.944,93.775 123.5,99.5 Z"/></g>
<g><path style="opacity:1" fill="#8e7620" d="M 2.5,97.5 C 42.4862,99.4943 82.8195,100.161 123.5,99.5C 83.0034,100.499 42.3368,100.832 1.5,100.5C 1.26269,99.209 1.59603,98.209 2.5,97.5 Z"/></g>
<g><path style="opacity:1" fill="#fcfcfc" d="M 67.5,102.5 C 67.5,112.167 67.5,121.833 67.5,131.5C 49.1667,131.5 30.8333,131.5 12.5,131.5C 6.83333,130.5 3.5,127.167 2.5,121.5C 2.5,115.167 2.5,108.833 2.5,102.5C 24.1667,102.5 45.8333,102.5 67.5,102.5 Z"/></g>
<g><path style="opacity:1" fill="#e9e9e9" d="M 67.5,102.5 C 73.5,102.5 79.5,102.5 85.5,102.5C 85.5,112.167 85.5,121.833 85.5,131.5C 79.5,131.5 73.5,131.5 67.5,131.5C 67.5,121.833 67.5,112.167 67.5,102.5 Z"/></g>
<g><path style="opacity:1" fill="#c9c9c9" d="M 89.5,101.5 C 91.6074,102.468 93.9407,102.802 96.5,102.5C 96.5,112.167 96.5,121.833 96.5,131.5C 92.8333,131.5 89.1667,131.5 85.5,131.5C 85.5,121.833 85.5,112.167 85.5,102.5C 79.5,102.5 73.5,102.5 67.5,102.5C 45.8333,102.5 24.1667,102.5 2.5,102.5C 2.5,108.833 2.5,115.167 2.5,121.5C 1.50929,115.021 1.17596,108.354 1.5,101.5C 30.8333,101.5 60.1667,101.5 89.5,101.5 Z"/></g>
<g><path style="opacity:1" fill="#acacac" d="M 96.5,102.5 C 98.8333,102.5 101.167,102.5 103.5,102.5C 103.5,112.167 103.5,121.833 103.5,131.5C 101.167,131.5 98.8333,131.5 96.5,131.5C 96.5,121.833 96.5,112.167 96.5,102.5 Z"/></g>
<g><path style="opacity:1" fill="#8b8b8b" d="M 89.5,101.5 C 94.8333,101.5 100.167,101.5 105.5,101.5C 106.919,102.451 108.585,102.784 110.5,102.5C 110.5,112.167 110.5,121.833 110.5,131.5C 108.167,131.5 105.833,131.5 103.5,131.5C 103.5,121.833 103.5,112.167 103.5,102.5C 101.167,102.5 98.8333,102.5 96.5,102.5C 93.9407,102.802 91.6074,102.468 89.5,101.5 Z"/></g>
<g><path style="opacity:1" fill="#696969" d="M 105.5,101.5 C 108.833,101.5 112.167,101.5 115.5,101.5C 116.473,111.084 116.806,120.75 116.5,130.5C 114.914,131.148 113.247,131.648 111.5,132C 78.3308,132.831 45.3308,132.664 12.5,131.5C 30.8333,131.5 49.1667,131.5 67.5,131.5C 73.5,131.5 79.5,131.5 85.5,131.5C 89.1667,131.5 92.8333,131.5 96.5,131.5C 98.8333,131.5 101.167,131.5 103.5,131.5C 105.833,131.5 108.167,131.5 110.5,131.5C 110.5,121.833 110.5,112.167 110.5,102.5C 108.585,102.784 106.919,102.451 105.5,101.5 Z"/></g>
<g><path style="opacity:1" fill="#303030" d="M 115.5,101.5 C 118.167,101.5 120.833,101.5 123.5,101.5C 123.666,108.175 123.5,114.842 123,121.5C 122.16,125.5 119.994,128.5 116.5,130.5C 116.806,120.75 116.473,111.084 115.5,101.5 Z"/></g>
</svg>

<svg xmlns="http://www.w3.org/2000/svg" width="126" height="134" style="shape-rendering:geometricPrecision;text-rendering:geometricPrecision;image-rendering:optimizeQuality;fill-rule:evenodd;clip-rule:evenodd"><path style="opacity:.881" fill="#020202" d="M12.5-.5h100c6.077 1.547 10.41 5.214 13 11v27c-2.092 3.928-5.092 7.094-9 9.5-7.326.5-14.659.666-22 .5v17a40.937 40.937 0 0 1 9 .5 301.308 301.308 0 0 1-12 20c8.41.093 16.743.76 25 2 4.494 1.871 7.494 5.038 9 9.5v27c-2.333 4.333-5.667 7.667-10 10H9.5c-5.503-2.677-8.836-7.01-10-13v-21c.76-5.62 3.76-9.787 9-12.5a98.737 98.737 0 0 1 23-1.5v-16h-8a105.226 105.226 0 0 1 11-21 314.728 314.728 0 0 0-25-1.5C3.882 44.568.549 40.401-.5 34.5v-21c1.556-7.224 5.89-11.89 13-14zm25 49a576.578 576.578 0 0 1 48-1v17a16.869 16.869 0 0 0-8 1 267.415 267.415 0 0 0 11 19 576.865 576.865 0 0 1-48 1v-16a21.12 21.12 0 0 0 9-1 8687.973 8687.973 0 0 0-12-20z"/><path style="opacity:1" fill="#4988ba" d="M11.5 1.5c33.668-.167 67.335 0 101 .5 6.799 1.443 10.466 5.61 11 12.5-40.672.333-81.339 0-122-1 1.567-5.559 4.9-9.559 10-12z"/><path style="opacity:1" fill="#fcfcfc" d="M67.5 16.5v29h-55c-5.667-1-9-4.333-10-10v-19h65z"/><path style="opacity:1" fill="#e9e9e9" d="M67.5 16.5h18v29h-18v-29z"/><path style="opacity:1" fill="#c9c9c9" d="M85.5 16.5h11v29h-11v-29z"/><path style="opacity:1" fill="#afafaf" d="M96.5 16.5h5v29h-5v-29z"/><path style="opacity:1" fill="#929292" d="M102.5 15.5c1.765.961 3.765 1.295 6 1v29h-7v-29h-99v19c-.99-6.479-1.324-13.146-1-20h101z"/><path style="opacity:1" fill="#6c6c6c" d="M108.5 16.5h8v28a28.233 28.233 0 0 1-4 1.5c-33.502.83-66.836.664-100-.5h96v-29z"/><path style="opacity:1" fill="#424242" d="M102.5 15.5c6.045-.197 12.045.136 18 1a313 313 0 0 1-.5 25 14.694 14.694 0 0 1-3.5 3v-28h-8c-2.235.295-4.235-.039-6-1z"/><path style="opacity:1" fill="#fdd33a" d="M123.5 99.5c-40.68.661-81.014-.006-121-2 1.421-4.59 4.421-7.757 9-9.5 34.333-.667 68.667-.667 103 0 5.444 1.942 8.444 5.775 9 11.5z"/><path style="opacity:1" fill="#8e7620" d="M2.5 97.5c39.986 1.994 80.32 2.661 121 2a3720.34 3720.34 0 0 1-122 1c-.237-1.291.096-2.291 1-3z"/><path style="opacity:1" fill="#fcfcfc" d="M67.5 102.5v29h-55c-5.667-1-9-4.333-10-10v-19h65z"/><path style="opacity:1" fill="#e9e9e9" d="M67.5 102.5h18v29h-18v-29z"/><path style="opacity:1" fill="#c9c9c9" d="M89.5 101.5c2.107.968 4.44 1.302 7 1v29h-11v-29h-83v19c-.99-6.479-1.324-13.146-1-20h88z"/><path style="opacity:1" fill="#acacac" d="M96.5 102.5h7v29h-7v-29z"/><path style="opacity:1" fill="#8b8b8b" d="M89.5 101.5h16c1.419.951 3.085 1.284 5 1v29h-7v-29h-7c-2.56.302-4.893-.032-7-1z"/><path style="opacity:1" fill="#696969" d="M105.5 101.5h10a218.833 218.833 0 0 1 1 29 27.603 27.603 0 0 1-5 1.5c-33.17.831-66.17.664-99-.5h98v-29c-1.915.284-3.581-.049-5-1z"/><path style="opacity:1" fill="#303030" d="M115.5 101.5h8c.166 6.675 0 13.342-.5 20-.84 4-3.006 7-6.5 9 .306-9.75-.027-19.416-1-29z"/></svg>
